X: 423
M: C|
L: 1/8
K: G
|:\
c2e2 B2g2 | ABAG F2A2 | B2d2 (f3e/f/) | g2G2B2d2 :|
|:\
g2(g/a/b) d2g2 | abag f2a2 | g2(g/a/b) B2g2 | B2(AG) B2d2 |\
c2e2 B2g2 | ABAG F2A2 | Bcd2 (f3e/f/) | gdBG B2d2 :|

